!!!OTL: Dem Bauer seng Heilegsgof (266), S. 566
!!!id: T0456
**kern
*clefG2
*k[f#]
*G:
{8d
=1
8.g
16g
16g
16g
8g
=2
8g
16d
16d
16d
16d}
=3
{8d
=4
8a
8a
8a
8g
=5
8f#
8e
8d}
=6
{8g
=7
8a
16d
16d
16d
16d
8d
=8
4g}
8r
=9
{8d
=10
8g
8g
8g
8a
=11
4b}
8r
=12
{8g
=13
8a
16d
16d
16d
16d
8d
=14
4g}
4r
=15
{4g
8f#
8e
=16
8e
8d
8d}
=17
{8d
=18
8g
8g
8g
8a
=19
4b}
8r
=20
{8g
=21
8a
16d
16d
16d
16d
8d
=22
8g}
4r
==
*-
!!!minrhy: 16
!!!meters: 2/4 ]  ZZ[8
!!!cut: Dem Bauer seng Heilegsgof (266), S. 566
!!!reg: Luxemburg
!!!trd: Singendes Volk, Esch-Alzette, 1937 posth.
!!!rhy1: X_  X_.XXXX_  X_XXXX
!!!rhy2: X_  X_X_X_X_  X_X_X_
!!!key: T0456  16  G 2/4 ]  ZZ[8
!!!mod: SECHSTONSKALA DUR ?]  AMBITUS[6
!!!kad: -5-5131-531
!!!akz: 11_2-7_21_13_21_1-6_13_21_
!!!fot: 'a__b__c__aw_c__d__aw_c__
!!!for: 'a__b__c__bw_cv_d__bw_cv_
!!!fok: '^__^__V__/__V__\__/__V__
!! PHRAS[VORWIEGEND AUFTAKTIG]
!!!fkt: Scherz-, Spiel-, Spottlied; Hochzeits-, Brautlied
!!!bem1: Junglinster, hhh Vater des Verfassers, um 1890;
!!!bem2: StraPen, hhh Nikolaus Lersch, Liederheft, um 1850
!! THILL; Mathias
!! PR[64] 2K[0] 2G[15] 3K[0] 3G[0] 4A[0] 4Ü[0] 5A[0] 6K[0] 6G[0]
!! 7K[0] 7G[0] 8A[0] MEHR[0] SI[15] ABS[33] SR[15] SP[0]
!! ST[0] 2k[3] 2g[18] 3k[0] 3g[0] 4d[0] 4ü[0] 5d[0] 6k[0] 6g[0]
!! 7k[0] 7g[0] 8d[0] mehr[0] si[21] dm[-6] sr[21] sp[0]
!! 1F[12] 2F[88] 3F[0] 4F[0] LF[0] 2P[0] 3P[0] 4P[0] TRI[0] DF[2] AB[34]
!! TF[0] U3K[0] U3[0] U4[0] U4Ü[0] U5[0] U6K[0] U6[0] U7K[0] U7[0]
!! N1[3] N2K[0] N2[3] N3K[12] N3[0] N4[21] N4Ü[0] N5[62] N6K[0] N6[0]
!!!n7k: 0] N7[0] O1[0] O2K[0] O2[0] O3K[0] O3[0] HÖ[0
